X: 236
T:Spotted Pony II
M:4/4
L:1/8
S:Trad.
R:reel
K:D
"D" D2DD "A"E2EE | "D"F2FF "G"G2GG | "D"ABde fede | f2a2"A"e4 |!
"D"D2DD "A"E2EE | "D"F2FF "G"G2GG | "D"ABde fede | "A"f2e2"D"d4 :|!
"D"f2a2f4 | "G"efedB4 | "D"ABde fede | f2a2"A"e4 |!
"D"f2a2f4 | "G"efedB4 | "D"ABde fede | "A"f2e2"D"d4 :|
